X: 26503
T: Michael O'Brien's
R: jig
M: 6/8
K: Dmajor
DED DFA|GEF GAB|cde dcA|def ecA|
DF/E/D DFA|GEF GAB|cde dcA|GEA D2A:|
|:def ecA|g2f ecA|(3Bcd e g2f|ecA Adc|
~B3 AFD|def ecA|(3Bcd e dcA|1 GEA DFA:|2 GEA D2A||

